X:49
T:Cooley's Reel
S:Setting from Alan Ng for teaching purposes
Z: id:ng-reels-49 transcribed by Alan Ng alan@alan-ng.nospam (net) 26 Feb 2004
M:C|
E:11
K:EDor
D|EBBA B2EB|B2AB dBAG|FDAD BDAD|FDFA dBAF|\
EBBA B2EB|B2AB defg|afge dBAF|DEFD E3::g|eBB2 eBgB|eBB2 gedB|A2FA dAFB|ADFA defg|\
eBB2 eBgB|eBB2 defg|afge dBAF|DEFD E3:|**
